X:1
T:Mindets Bæger
T:Mindets Bæger
T:Norsk Folkemelodi
T:Joh. D. Behrens
T:J. S. Welhaven
C:Joh. D. Behrens
Z:J. S. Welhaven
%%score [ 1 2 3 4 ]
L:1/8
Q:1/4=82
M:3/4
K:Eb
V:1 treble-8 nm="T1"
V:2 treble-8 nm="T2"
V:3 bass nm="B1"
V:4 bass nm="B2"
V:1
!mf!"^Menuetto maestoso" G | c3/2 c/ c2 c3/2 c/ | c3/2 =B/ B3 G | c3/2!<(! c/ c2!<)! c3/2 c/ | %4
w: 1.I|Ro- sen- lund un- der|Sa- gas Hal, der|gjem- mer hel- li- ge|
w: 2.Ti|El- ven nyn- ner et|gam- melt Kvad, der|bæ- res vidt o- ver|
w: 3.Vi|van- dre da til den|kla- re Strøm i|Sa- gas fre- de- de|
!>(! d2 d2!>)! z d | e3/2 e/ e2 e3/2 e/ |!<(! e3/2 d/ d3!<)! d | e3/2 c/!>(! G2 =B3/2!>)! B/ | %8
w: Min- der, med|sag- te ris- len- de|Bøl- ge- fald den|kla- re Søk- kva- bæk|
w: Stran- de, om|A- sers Drot, som ved|Bred- den sad og|drak af ris- len- de|
w: Ri- ger; vort|Nor- dens ly- se- ste|Frem- tids- drøm vil|der af Bøl- ger- ne|
 c2 c2 z!f! c | g3/2 g/ g3 f | e3/2 d/ c3 c |!<(! d3/2 e/!<)! f2 e2 |!>(! d2 d2!>)! z!mf! d | %13
w: rin- der. Der|er en Kalk saa|sød og sval, af|det- te Væld at|tøm- me, og|
w: Van- de. Mens|Sa- gas Aand i|den- ne Drik det|Svund- ne aa- ben-|ba- red, stod|
w: sti- ge. Ti|O- dins Æt har|in- tet Væld, der|me- re lif- lig|kvæ- ger, den|
 e3/2 d/!>(! c2 c2!>)! | =B3/2 =A/ G2!<(! c2!<)! | c3/2 d/ G2 =B2 |!>(! c2!>)! c2 z |] %17
w: Nor- dens Mænd fra|Fjeld og Dal gaa|did i vaag- ne|Drøm- me.|
w: Frem- tids Syn for|O- dins Blik af|Min- dets Glans for-|kla- ret.|
w: det- te Haab for|Nor- dens Held, som|bor i Min- dets|Bæ- ger.|
V:2
!mf! G | G3/2 G/ G2 G3/2 G/ | G3/2 G/ G3 G | G3/2!<(! G/ G2!<)! c3/2 c/ |!>(! =B2 B2!>)! z B | %5
w: 1.I|Ro- sen- lund un- der|Sa- gas Hal, der|gjem- mer hel- li- ge|Min- der, med|
w: 2.Ti|El- ven nyn- ner et|gam- melt Kvad, der|bæ- res vidt o- ver|Stran- de, om|
w: 3.Vi|van- dre da til den|kla- re Strøm i|Sa- gas fre- de- de|Ri- ger; vort|
 c3/2 c/ c2 c3/2 c/ |!<(! c3/2 c/ c3!<)! =B | c3/2 G/!>(! G2 G3/2!>)! G/ | G2 G2 z!f! G | %9
w: sag- te ris- len- de|Bøl- ge- fald den|kla- re Søk- kva- bæk|rin- der. Der|
w: A- sers Drot, som ved|Bred- den sad og|drak af ris- len- de|Van- de. Mens|
w: Nor- dens ly- se- ste|Frem- tids- drøm vil|der af Bøl- ger- ne|sti- ge. Ti|
 d3/2 d/ d3 d | c3/2 G/ G3 G |!<(! =B3/2 c/!<)! d2 c2 |!>(! =B2 B2!>)! z!mf! B | %13
w: er en Kalk saa|sød og sval, af|det- te Væld at|tøm- me, og|
w: Sa- gas Aand i|den- ne Drik det|Svund- ne aa- ben-|ba- red, stod|
w: O- dins Æt har|in- tet Væld, der|me- re lif- lig|kvæ- ger, den|
 c3/2 G/!>(! G2 G2!>)! | G3/2 _G/ =G2!<(! (E_A)!<)! | A3/2 A/ G2 G2 |!>(! G2!>)! G2 z |] %17
w: Nor- dens Mænd fra|Fjeld og Dal gaa _|did i vaag- ne|Drøm- me.|
w: Frem- tids Syn for|O- dins Blik af _|Min- dets Glans for-|kla- ret.|
w: det- te Haab for|Nor- dens Held, som _|bor i Min- dets|Bæ- ger.|
V:3
!mf! E, | E,3/2 F,/ G,2 F,3/2 E,/ | E,3/2 D,/ D,3 G, | G,3/2!<(! F,/ E,2!<)! F,3/2 ^F,/ | %4
w: 1.I|Ro- sen- lund un- der|Sa- gas Hal, der|gjem- mer hel- li- ge|
w: 2.Ti|El- ven nyn- ner et|gam- melt Kvad, der|bæ- res vidt o- ver|
w: 3.Vi|van- dre da til den|kla- re Strøm i|Sa- gas fre- de- de|
!>(! G,2 G,2!>)! z G, | G,3/2 G,/ G,2 G,3/2 G,/ |!<(! A,3/2 A,/ A,3!<)! G, | %7
w: Min- der, med|sag- te ris- len- de|Bøl- ge- fald den|
w: Stran- de, om|A- sers Drot, som ved|Bred- den sad og|
w: Ri- ger; vort|Nor- dens ly- se- ste|Frem- tids- drøm vil|
 G,3/2 E,/!>(! E,2 D,3/2!>)! F,/ | E,2 E,2 z!f! E, | G,3/2 G,/ G,3 G, | G,3/2 F,/ E,3 E, | %11
w: kla- re Søk- kva- bæk|rin- der. Der|er en Kalk saa|sød og sval, af|
w: drak af ris- len- de|Van- de. Mens|Sa- gas Aand i|den- ne Drik det|
w: der af Bøl- ger- ne|sti- ge. Ti|O- dins Æt har|in- tet Væld, der|
!<(! G,3/2 G,/!<)! G,2 G,2 |!>(! G,2 G,2!>)! z!mf! G, | G,3/2 F,/!>(! E,2 E,2!>)! | %14
w: det- te Væld at|tøm- me, og|Nor- dens Mænd fra|
w: Svund- ne aa- ben-|ba- red, stod|Frem- tids Syn for|
w: me- re lif- lig|kvæ- ger, den|det- te Haab for|
 D,3/2 C,/ (=B,,F,)!<(! E,2!<)! | F,3/2 F,/ E,2 D,2 |!>(! E,2!>)! E,2 z |] %17
w: Fjeld og Dal _ gaa|did i vaag- ne|Drøm- me.|
w: O- dins Blik _ af|Min- dets Glans for-|kla- ret.|
w: Nor- dens Held, _ som|bor i Min- dets|Bæ- ger.|
V:4
!mf! C, | C,3/2 D,/ E,2 D,3/2 C,/ | G,,3/2 G,,/ G,,3 G, | E,3/2!<(! D,/ C,2!<)! A,,3/2 A,,/ | %4
w: 1.I|Ro- sen- lund un- der|Sa- gas Hal, der|gjem- mer hel- li- ge|
w: 2.Ti|El- ven nyn- ner et|gam- melt Kvad, der|bæ- res vidt o- ver|
w: 3.Vi|van- dre da til den|kla- re Strøm i|Sa- gas fre- de- de|
!>(! G,,2 G,,2!>)! z G,, | C,3/2 C,/ C,2 C,3/2 E,/ |!<(! F,3/2 F,/ F,3!<)! G, | %7
w: Min- der, med|sag- te ris- len- de|Bøl- ge- fald den|
w: Stran- de, om|A- sers Drot, som ved|Bred- den sad og|
w: Ri- ger; vort|Nor- dens ly- se- ste|Frem- tids- drøm vil|
 C,3/2 C,/!>(! C,2 G,,3/2!>)! G,,/ | C,2 C,2 z!f! C, | =B,,3 G,, =A,, B,, | C,3 G,, C, E, | %11
w: kla- re Søk- kva- bæk|rin- der. Der|er en Kalk saa|sød og sval, af|
w: drak af ris- len- de|Van- de. Mens|Sa- gas Aand i|den- ne Drik det|
w: der af Bøl- ger- ne|sti- ge. Ti|O- dins Æt har|in- tet Væld, der|
!<(! D,3/2 C,/!<)! =B,,2 C,2 |!>(! G,,2 G,,2!>)! z!mf! G,, | C,3/2 D,/!>(! E,2 C,2!>)! | %14
w: det- te Væld at|tøm- me, og|Nor- dens Mænd fra|
w: Svund- ne aa- ben-|ba- red, stod|Frem- tids Syn for|
w: me- re lif- lig|kvæ- ger, den|det- te Haab for|
 G,,3/2 G,,/ G,,2!<(! A,,2!<)! | F,,3/2 F,,/ G,,2 G,,2 |!>(! C,2!>)! C,2 z |] %17
w: Fjeld og Dal gaa|did i vaag- ne|Drøm- me.|
w: O- dins Blik af|Min- dets Glans for-|kla- ret.|
w: Nor- dens Held, som|bor i Min- dets|Bæ- ger.|

